X:1
T: Neil Gow's Recovery
T: Niel Gow's Recovery
T:1st setting
R:Strathspey
Q: 128
K:Bb
M:4/4
L:1/16
|:E2|DEF2 F3d dcBA B4|GAB2 F3D EC3 C3E|D2F2 F3d dcBA B3F|GAB2 F2E2 DB,3 B,2E2|
DEF2 F3d dcBA B4|GAB2 F3D EC3 C3E|D2F2 F3d dcBA B3F|GAB2 F2E2 DB,3 B,2f2|
d3f B3f dB3 B3_a|g3e f3d e3c c3f|d3f G3f dB3 B3_a|g3e f2e2 dB3 B2f2|
d3f B3f dB3 B3_a|ge3 f2d2 ec3 c3e|df3 cd3 Be3 d3c|B2G2 F3E DB,3 B,2:|
